docs/images/sidebar.svg

<svg fill="none" height="792" viewBox="0 0 1607 792" width="1607" xmlns="http://www.w3.org/2000/svg"><path d="m1537 10h-1467c-33.1371 0-60 26.8629-60 60v652c0 33.137 26.8629 60 60 60h1467c33.14 0 60-26.863 60-60v-652c0-33.1371-26.86-60-60-60z" fill="#fff" stroke="#f2f2f2" stroke-width="20"/><rect fill="#000" fill-opacity=".05" height="645" rx="38.5" width="1077" x="449" y="74"/><rect fill="#000" fill-opacity=".05" height="645" rx="38.5" width="304" x="82" y="74"/><rect fill="#28abf2" fill-opacity=".29" height="47" rx="23.5" width="446" x="513" y="122"/><rect fill="#ffbf00" fill-opacity=".33" height="47" rx="23.5" width="393" x="513" y="416"/><rect fill="#f00" fill-opacity=".19" height="47" rx="23.5" width="277" x="513" y="612"/><rect fill="#28abf2" fill-opacity=".29" height="35" rx="17.5" width="172" x="148" y="132"/><rect fill="#ffbf00" fill-opacity=".33" height="35" rx="17.5" width="152" x="148" y="194"/><rect fill="#f00" fill-opacity=".19" height="35" rx="17.5" width="117" x="148" y="256"/><g fill="#000" fill-opacity=".05"><rect height="145" rx="38.5" width="942" x="513" y="220"/><rect height="47" rx="23.5" width="942" x="513" y="514"/></g></svg>

<svg width="1607" height="792" viewBox="0 0 1607 792" fill="none" xmlns="http://www.w3.org/2000/svg">
<path d="M1537 10H70C36.8629 10 10 36.8629 10 70V722C10 755.137 36.8629 782 70 782H1537C1570.14 782 1597 755.137 1597 722V70C1597 36.8629 1570.14 10 1537 10Z" fill="white" stroke="#F2F2F2" stroke-width="20"/>
<rect x="449" y="74" width="1077" height="645" rx="38.5" fill="black" fill-opacity="0.05"/>
<rect x="82" y="74" width="304" height="645" rx="38.5" fill="black" fill-opacity="0.05"/>
<rect x="513" y="122" width="446" height="47" rx="23.5" fill="#28ABF2" fill-opacity="0.29"/>
<rect x="513" y="416" width="393" height="47" rx="23.5" fill="#FFBF00" fill-opacity="0.33"/>
<rect x="513" y="612" width="277" height="47" rx="23.5" fill="#FF0000" fill-opacity="0.19"/>
<rect x="148" y="132" width="172" height="35" rx="17.5" fill="#28ABF2" fill-opacity="0.29"/>
<rect x="148" y="194" width="152" height="35" rx="17.5" fill="#FFBF00" fill-opacity="0.33"/>
<rect x="148" y="256" width="117" height="35" rx="17.5" fill="#FF0000" fill-opacity="0.19"/>
<rect x="513" y="220" width="942" height="145" rx="38.5" fill="black" fill-opacity="0.05"/>
<rect x="513" y="514" width="942" height="47" rx="23.5" fill="black" fill-opacity="0.05"/>
</svg>
